preferences/32/preferences-desktop-theme-windowdecorations.svg

<?xml version="1.0" encoding="UTF-8" standalone="no"?>
<!-- Created with Inkscape (http://www.inkscape.org/) -->

<svg
   width="32"
   height="32"
   version="1.1"
   viewBox="0 0 32 32"
   id="svg22"
   sodipodi:docname="preferences-desktop-theme-windowdecorations.svg"
   inkscape:version="1.1.2 (0a00cf5339, 2022-02-04)"
   xmlns:inkscape="http://www.inkscape.org/namespaces/inkscape"
   xmlns:sodipodi="http://sodipodi.sourceforge.net/DTD/sodipodi-0.dtd"
   xmlns:xlink="http://www.w3.org/1999/xlink"
   xmlns="http://www.w3.org/2000/svg"
   xmlns:svg="http://www.w3.org/2000/svg">
  <sodipodi:namedview
     id="namedview24"
     pagecolor="#ffffff"
     bordercolor="#666666"
     borderopacity="1.0"
     inkscape:showpageshadow="2"
     inkscape:pageopacity="0.0"
     inkscape:pagecheckerboard="0"
     inkscape:deskcolor="#d1d1d1"
     showgrid="false"
     inkscape:zoom="25.62"
     inkscape:cx="5.8548009"
     inkscape:cy="11.904762"
     inkscape:window-width="3440"
     inkscape:window-height="1356"
     inkscape:window-x="0"
     inkscape:window-y="0"
     inkscape:window-maximized="1"
     inkscape:current-layer="g845"
     inkscape:pageshadow="2" />
  <defs
     id="defs12">
    <linearGradient
       id="linearGradient1005-3-3"
       x1="5.2535"
       x2="9.3823996"
       y1="15.383"
       y2="2.9421"
       gradientTransform="matrix(0.99999,0,0,0.99999,1.632,-0.61743)"
       gradientUnits="userSpaceOnUse">
      <stop
         stop-color="#fa8200"
         offset="0"
         id="stop2" />
      <stop
         stop-color="#ff9600"
         offset=".36953"
         id="stop4" />
      <stop
         stop-color="#ffb400"
         offset="1"
         id="stop6" />
    </linearGradient>
    <filter
       id="filter4014"
       x="-0.062499933"
       y="-0.057692993"
       width="1.1249999"
       height="1.115386"
       color-interpolation-filters="sRGB">
      <feGaussianBlur
         stdDeviation="1.093751"
         id="feGaussianBlur9" />
    </filter>
    <linearGradient
       inkscape:collect="always"
       xlink:href="#linearGradient3487"
       id="linearGradient3403"
       gradientUnits="userSpaceOnUse"
       x1="6.9491749"
       y1="4.5549412"
       x2="11.215498"
       y2="59.052471" />
    <linearGradient
       id="linearGradient3487">
      <stop
         style="stop-color:#32373c;stop-opacity:1"
         offset="0"
         id="stop3481" />
      <stop
         id="stop3483"
         offset="0.36804965"
         style="stop-color:#1a1a1a;stop-opacity:1" />
      <stop
         style="stop-color:#31363b;stop-opacity:1"
         offset="1"
         id="stop3485" />
    </linearGradient>
    <linearGradient
       inkscape:collect="always"
       xlink:href="#linearGradient20604"
       id="linearGradient20558"
       gradientUnits="userSpaceOnUse"
       x1="25.802212"
       y1="20.373846"
       x2="25.111048"
       y2="58.912758" />
    <linearGradient
       id="linearGradient20604">
      <stop
         id="stop20598"
         offset="0"
         style="stop-color:#3d3d3d;stop-opacity:1" />
      <stop
         style="stop-color:#000000;stop-opacity:1"
         offset="0.61772454"
         id="stop20600" />
      <stop
         id="stop20602"
         offset="1"
         style="stop-color:#3d3d3d;stop-opacity:1" />
    </linearGradient>
    <filter
       inkscape:collect="always"
       style="color-interpolation-filters:sRGB"
       id="filter20720"
       x="-0.017024755"
       y="-0.016457183"
       width="1.0340491"
       height="1.0329144">
      <feGaussianBlur
         inkscape:collect="always"
         stdDeviation="0.14745661"
         id="feGaussianBlur20722" />
    </filter>
    <linearGradient
       gradientTransform="translate(0.36067797,-0.13016949)"
       xlink:href="#linearGradient4555"
       id="linearGradient4557"
       x1="43.499737"
       y1="64.011795"
       x2="44.141731"
       y2="0.30621234"
       gradientUnits="userSpaceOnUse" />
    <linearGradient
       id="linearGradient4555">
      <stop
         style="stop-color:#141618;stop-opacity:1"
         offset="0"
         id="stop4551" />
      <stop
         id="stop4559"
         offset="0.51820582"
         style="stop-color:#686868;stop-opacity:1" />
      <stop
         style="stop-color:#31363b;stop-opacity:1"
         offset="1"
         id="stop4553" />
    </linearGradient>
    <filter
       style="color-interpolation-filters:sRGB"
       id="filter4601"
       x="-0.030244762"
       width="1.0604895"
       y="-0.030100647"
       height="1.0602013">
      <feGaussianBlur
         stdDeviation="0.014790289"
         id="feGaussianBlur4603" />
    </filter>
    <linearGradient
       xlink:href="#a"
       id="c"
       gradientUnits="userSpaceOnUse"
       gradientTransform="matrix(0.66667,0,0,0.63518,-256.38,-317.28)"
       y1="543.79999"
       x2="0"
       y2="502.66" />
    <linearGradient
       id="a"
       x2="0"
       y1="543.79999"
       y2="502.66"
       gradientTransform="matrix(0.66667,0,0,0.63518,-256.38,-317.28)"
       gradientUnits="userSpaceOnUse">
      <stop
         stop-color="#c6cdd1"
         offset="0"
         id="stop2-9" />
      <stop
         stop-color="#e0e5e7"
         offset="1"
         id="stop4-8" />
    </linearGradient>
    <linearGradient
       xlink:href="#a"
       id="d"
       gradientUnits="userSpaceOnUse"
       gradientTransform="matrix(0.66667,0,0,0.63518,-256.38,-317.28)"
       y1="543.79999"
       x2="0"
       y2="502.66" />
    <linearGradient
       id="linearGradient862"
       x2="0"
       y1="543.79999"
       y2="502.66"
       gradientTransform="matrix(0.66667,0,0,0.63518,-256.38,-317.28)"
       gradientUnits="userSpaceOnUse">
      <stop
         stop-color="#c6cdd1"
         offset="0"
         id="stop858" />
      <stop
         stop-color="#e0e5e7"
         offset="1"
         id="stop860" />
    </linearGradient>
  </defs>
  <g
     id="g845"
     transform="matrix(0.89982007,0,0,1.0432888,2.2186926,-0.80836043)">
    <path
       d="M 32,9 31,8 1.123,27 3.555,30 H 28.8 c 1.774,0 3.2,-1.426 3.2,-3.2 z"
       id="path16"
       style="fill:url(#c)"
       inkscape:connector-curvature="0" />
    <path
       d="M 3.2,2 A 3.192,3.192 0 0 0 0,5.2 V 26.8 A 3.19,3.19 0 0 0 3.2,30 H 3.555 L 1.123,27 31,8 32,9 V 5.2 A 3.19,3.19 0 0 0 28.8,2 Z"
       id="path18"
       style="fill:url(#d)"
       inkscape:connector-curvature="0" />
    <path
       d="M 16,6 H 32 V 4.5 A 2.492,2.492 0 0 0 29.5,2 H 16 Z"
       id="path20"
       inkscape:connector-curvature="0"
       style="fill:#566069" />
    <path
       d="M 16,6 V 2 H 2.5 A 2.492,2.492 0 0 0 0,4.5 V 6 Z"
       id="path22"
       inkscape:connector-curvature="0"
       style="fill:#eff0f1" />
    <path
       d="M 0,6 H 32 V 7 H 0 Z"
       id="path24"
       inkscape:connector-curvature="0"
       style="fill:#3daee9" />
    <rect
       ry="2"
       height="20"
       width="30"
       y="8"
       x="1"
       id="rect26"
       style="fill:#ffffff" />
    <rect
       rx="1"
       height="1.6787838"
       width="2"
       y="3.4003456"
       x="27.495415"
       id="rect28"
       style="fill:#eff0f1;stroke-width:0.916183" />
    <rect
       x="-3"
       y="3"
       width="2"
       height="2"
       rx="1"
       transform="scale(-1,1)"
       id="rect30"
       style="fill:#566069" />
  </g>
  <path
     style="display:inline;mix-blend-mode:normal;fill:url(#linearGradient3403);fill-opacity:1;stroke:url(#linearGradient20558);stroke-width:1.16242;stroke-linecap:butt;stroke-linejoin:round;stroke-miterlimit:4;stroke-dasharray:none;stroke-opacity:1;filter:url(#filter20720)"
     d="M 4.7043071,3.9814882 4.6913695,60.80196 H 58.59546 l 1.022155,-2.866369 c 0,0 -23.87537,0.766388 -32.844441,-4.140386 C 16.257548,48.042344 11.401114,4.0978197 11.401114,4.0978197 Z"
     id="path1686"
     sodipodi:nodetypes="ccccscc"
     transform="matrix(0.49530655,0,0,0.49530655,0.32409325,0.23228439)"
     inkscape:label="folder" />
  <rect
     style="display:inline;fill:none;fill-opacity:1;stroke:url(#linearGradient4557);stroke-width:3.71366;stroke-linejoin:round;stroke-miterlimit:7.8;stroke-dasharray:none;stroke-opacity:0.995146;filter:url(#filter4601)"
     id="rect4539"
     width="62.567089"
     height="62.866646"
     x="1.0323594"
     y="0.59551275"
     ry="6.2447233"
     rx="5.8029528"
     transform="matrix(0.46399463,0,0,0.4630489,1.1562887,1.2331482)"
     inkscape:label="contour" />
</svg>

<svg width="32" height="32" version="1.1" viewBox="0 0 32 32" xmlns="http://www.w3.org/2000/svg" xmlns:xlink="http://www.w3.org/1999/xlink">
<defs>
<linearGradient id="linearGradient3403" x1="6.9492" x2="11.215" y1="4.5549" y2="59.052" gradientUnits="userSpaceOnUse">
<stop style="stop-color:#32373c" offset="0"/>
<stop style="stop-color:#1a1a1a" offset=".36805"/>
<stop style="stop-color:#31363b" offset="1"/>
</linearGradient>
<linearGradient id="linearGradient20558" x1="25.802" x2="25.111" y1="20.374" y2="58.913" gradientUnits="userSpaceOnUse">
<stop style="stop-color:#3d3d3d" offset="0"/>
<stop offset=".61772"/>
<stop style="stop-color:#3d3d3d" offset="1"/>
</linearGradient>
<linearGradient id="linearGradient4557" x1="43.5" x2="44.142" y1="64.012" y2=".30621" gradientTransform="translate(.36068 -.13017)" gradientUnits="userSpaceOnUse">
<stop style="stop-color:#141618" offset="0"/>
<stop style="stop-color:#686868" offset=".51821"/>
<stop style="stop-color:#31363b" offset="1"/>
</linearGradient>
<linearGradient id="c" x2="0" y1="543.8" y2="502.66" gradientTransform="matrix(.66667 0 0 .63518 -256.38 -317.28)" gradientUnits="userSpaceOnUse" xlink:href="#a"/>
<linearGradient id="a" x2="0" y1="543.8" y2="502.66" gradientTransform="matrix(.66667 0 0 .63518 -256.38 -317.28)" gradientUnits="userSpaceOnUse">
<stop stop-color="#c6cdd1" offset="0"/>
<stop stop-color="#e0e5e7" offset="1"/>
</linearGradient>
</defs>
<g transform="matrix(.89982 0 0 1.0433 2.2187 -.80836)">
<path d="m32 9-1-1-29.877 19 2.432 3h25.245c1.774 0 3.2-1.426 3.2-3.2z" style="fill:url(#c)"/>
<path d="m3.2 2a3.192 3.192 0 0 0-3.2 3.2v21.6a3.19 3.19 0 0 0 3.2 3.2h0.355l-2.432-3 29.877-19 1 1v-3.8a3.19 3.19 0 0 0-3.2-3.2z" style="fill:url(#c)"/>
<path d="m16 6h16v-1.5a2.492 2.492 0 0 0-2.5-2.5h-13.5z" style="fill:#566069"/>
<path d="m16 6v-4h-13.5a2.492 2.492 0 0 0-2.5 2.5v1.5z" style="fill:#eff0f1"/>
<path d="m0 6h32v1h-32z" style="fill:#3daee9"/>
<rect x="1" y="8" width="30" height="20" ry="2" style="fill:#fff"/>
<rect x="27.495" y="3.4003" width="2" height="1.6788" rx="1" style="fill:#eff0f1;stroke-width:.91618"/>
<rect transform="scale(-1,1)" x="-3" y="3" width="2" height="2" rx="1" style="fill:#566069"/>
</g>
<path transform="matrix(.49531 0 0 .49531 .32409 .23228)" d="m4.7043 3.9815-0.012938 56.82h53.904l1.0222-2.8664s-23.875 0.76639-32.844-4.1404c-10.516-5.7529-15.372-49.697-15.372-49.697z" style="fill:url(#linearGradient3403);mix-blend-mode:normal;stroke-linejoin:round;stroke-width:1.1624;stroke:url(#linearGradient20558)"/>
<rect transform="matrix(.46399 0 0 .46305 1.1563 1.2331)" x="1.0324" y=".59551" width="62.567" height="62.867" rx="5.803" ry="6.2447" style="fill:none;stroke-linejoin:round;stroke-miterlimit:7.8;stroke-opacity:.99515;stroke-width:3.7137;stroke:url(#linearGradient4557)"/>
</svg>
